src/assets/icons/visible.svg

<svg height="40" viewBox="0 0 40 40" width="40" xmlns="http://www.w3.org/2000/svg"><path d="m15.0699321 15.7265726c-2.0622742.5747171-4.2606737 1.4913112-6.59431562 2.7530802l-.95123296-1.7593056c4.15584118-2.2470077 7.96689188-3.4818547 11.43730218-3.6890365.1847106-.0206868.3724636-.0313107.5626978-.0313107.0563454 0 .1124731.000932.1683685.0027815.1027226-.0018542.2051386-.0027815.307248-.0027815 3.7444816 0 7.9011754 1.2470082 12.4756165 3.7203472l-.951233 1.7593056c-2.7554141-1.4898156-5.3222818-2.4984103-7.6991498-3.0312127.4441066.7469649.6991498 1.6194781.6991498 2.5515599 0 2.7614237-2.2385762 5-5 5-2.7614237 0-5-2.2385763-5-5 0-.818665.1967516-1.5913763.5455486-2.2734274zm-6.59431562 6.2734274c4.30315972 2.3266609 8.14646582 3.4796528 11.52438352 3.4796528s7.2212238-1.1529919 11.5243835-3.4796528l.951233 1.7593055c-4.5744411 2.4733391-8.7311349 3.7203473-12.4756165 3.7203473s-7.9011754-1.2470082-12.47561648-3.7203473z" /></svg>

<svg width="26px" height="15px" viewBox="0 0 26 15" version="1.1" xmlns="http://www.w3.org/2000/svg" xmlns:xlink="http://www.w3.org/1999/xlink">
    <defs>
        <path d="M15.0699321,15.7265726 C13.0076579,16.3012897 10.8092584,17.2178838 8.47561648,18.4796528 L7.52438352,16.7203472 C11.6802247,14.4733395 15.4912754,13.2384925 18.9616857,13.0313107 C19.1463963,13.0106239 19.3341493,13 19.5243835,13 C19.5807289,13 19.6368566,13.000932 19.692752,13.0027815 C19.7954746,13.0009273 19.8978906,13 20,13 C23.7444816,13 27.9011754,14.2470082 32.4756165,16.7203472 L31.5243835,18.4796528 C28.7689694,16.9898372 26.2021017,15.9812425 23.8252337,15.4484401 C24.2693403,16.195405 24.5243835,17.0679182 24.5243835,18 C24.5243835,20.7614237 22.2858073,23 19.5243835,23 C16.7629598,23 14.5243835,20.7614237 14.5243835,18 C14.5243835,17.181335 14.7211351,16.4086237 15.0699321,15.7265726 Z M8.47561648,22 C12.7787762,24.3266609 16.6220823,25.4796528 20,25.4796528 C23.3779177,25.4796528 27.2212238,24.3266609 31.5243835,22 L32.4756165,23.7593055 C27.9011754,26.2326446 23.7444816,27.4796528 20,27.4796528 C16.2555184,27.4796528 12.0988246,26.2326446 7.52438352,23.7593055 L8.47561648,22 Z" id="path-1"></path>
    </defs>
    <g id="Symbols" stroke="none" stroke-width="1" fill="none" fill-rule="evenodd">
        <g id="Icon/Eye" transform="translate(-7.000000, -13.000000)">
            <mask id="mask-2" fill="white">
                <use xlink:href="#path-1"></use>
            </mask>
            <use id="Combined-Shape" fill="#8C8B89" xlink:href="#path-1"></use>
        </g>
    </g>
</svg>
